X: 1
T:3/4
M:3/4
O:Denmark
Z:Transcribed from a recording by Andy Hornby
B:Rasmus Storm's Notebook
K:DDor
B2 B2 c2|B>B Bd cB|\
B2 B2 c2|B>B Bd cB|B>A AF D2::\
d>e fg af|b>a af ga|(3fgf (3ece A2|\
d>e fg af|b>a af ga|(3fgf (3ece d2:|
